X: 15963
T: Grant's
R: reel
M: 4/4
K: Amixolydian
||e2ed BedB|G/G/G AB A/A/A A2|e2ed BedB|Ggfg edBd|e/e/e ed BedB|G/G/G AB A/A/A A2|e2ed BedB|Ggfg edBd||
edef g2fe|defg agfa|edef g2fe|dBgB A/A/A A2|edef g2fe|defg agfa|gfeg edBd|edef gagf||

